arrow-top-right-thin-circle-outline.svg

<svg fill="currentColor" viewBox="0 0 24 24"><path d="M12 3.97c-4.41 0-8.03 3.62-8.03 8.03s3.62 8.03 8.03 8.03 8.03-3.62 8.03-8.03S16.41 3.97 12 3.97M12 2c5.54 0 10 4.46 10 10s-4.46 10-10 10S2 17.54 2 12 6.46 2 12 2m1.88 9.53L16 13.64V8h-5.64l2.11 2.12L7.5 15.1l1.4 1.4"/></svg>

<svg  viewBox="0 0 24 24" fill="currentColor"><path  d="M12 3.97C7.59 3.97 3.97 7.59 3.97 12C3.97 16.41 7.59 20.03 12 20.03C16.41 20.03 20.03 16.41 20.03 12C20.03 7.59 16.41 3.97 12 3.97M12 2C17.54 2 22 6.46 22 12C22 17.54 17.54 22 12 22C6.46 22 2 17.54 2 12C2 6.46 6.46 2 12 2M13.88 11.53L16 13.64V8H10.36L12.47 10.12L7.5 15.1L8.9 16.5"/></svg>
